icons/Logos/spectrum-fill.svg

<svg viewBox="0 0 24 24" xmlns="http://www.w3.org/2000/svg"><path d="M13.1997 2.00644C21.2413 2.09355 22.0006 3.25057 22.0006 12.0006L21.9948 13.1996C21.9077 21.2413 20.7506 22.0006 12.0006 22.0006L10.8016 21.9947C3.14288 21.9117 2.08947 20.8583 2.00651 13.1996L2.00098 11.6913L2.00651 10.8015C2.09154 2.95134 3.19615 2.04086 11.3885 2.00195L13.1997 2.00644ZM8.25064 7.00057H7.66731C7.33265 7.00057 7.0555 7.2473 7.00787 7.56874L7.00064 7.66724V11.3339C7.00064 11.6688 7.24737 11.9458 7.56881 11.9933L7.66731 12.0006H8.25064C10.2549 12.0006 11.8919 13.573 11.9954 15.5514L12.0006 15.7506V16.3339C12.0006 16.6688 12.2474 16.9458 12.5688 16.9933L12.6673 17.0006H16.334C16.6686 17.0006 16.9458 16.754 16.9934 16.4325L17.0006 16.3339V15.7506C17.0006 11.0044 13.2218 7.14078 8.50863 7.0043L8.25064 7.00057Z"/></svg>

<svg xmlns="http://www.w3.org/2000/svg" viewBox="0 0 24 24">
    <g>
        <path fill="none" d="M0 0h24v24H0z"/>
        <path d="M13.2 2.006C21.24 2.093 22 3.25 22 12l-.006 1.2C21.907 21.24 20.75 22 12 22l-1.2-.006c-7.658-.083-8.711-1.136-8.794-8.795L2 11.691l.006-.89c.085-7.85 1.19-8.76 9.382-8.8l1.811.005zM8.25 7h-.583a.667.667 0 0 0-.66.568L7 7.667v3.666c0 .335.247.612.568.66l.099.007h.583a3.75 3.75 0 0 1 3.745 3.55l.005.2v.583c0 .335.247.612.568.66l.099.007h3.666a.667.667 0 0 0 .66-.568l.007-.099v-.583a8.75 8.75 0 0 0-8.492-8.746L8.25 7z"/>
    </g>
</svg>
